img/services/03.svg

<svg width="71" height="67" viewBox="0 0 71 67" fill="none" xmlns="http://www.w3.org/2000/svg">
<path d="M65.7172 19.6405H64.5931V17.49H65.9095C68.2836 17.49 70.2137 15.6438 70.2137 13.3728C70.2137 12.2739 69.7663 11.2395 68.9525 10.462L59.5739 1.49108C58.7612 0.713663 57.6809 0.285706 56.532 0.285706C54.1579 0.285706 52.2277 2.13194 52.2277 4.40291V5.66205C45.365 5.66205 40.2873 7.81259 35.2692 12.8362C34.6071 13.4696 34.2418 14.3126 34.2418 15.2094C34.2418 16.576 35.1029 17.7491 36.3304 18.2728L35.2692 19.2879C35.1546 19.3975 35.0624 19.5201 34.9657 19.6405H5.01456C2.53474 19.6405 0.518066 21.5696 0.518066 23.9416V62.6513C0.518066 65.0233 2.53474 66.9524 5.01456 66.9524H65.7172C68.197 66.9524 70.2137 65.0233 70.2137 62.6513V23.9416C70.2137 21.5696 68.197 19.6405 65.7172 19.6405ZM56.532 2.43624C57.0806 2.43624 57.5966 2.64054 57.9855 3.01259L67.3641 11.9836C67.7519 12.3545 67.9655 12.8481 67.9655 13.3728C67.9655 14.4577 67.0437 15.3395 65.9095 15.3395H63.9344L54.476 6.29216V4.40291C54.476 3.31796 55.3978 2.43624 56.532 2.43624ZM37.7502 16.4147C37.0555 16.4147 36.49 15.8739 36.49 15.2094C36.49 14.8868 36.6215 14.5846 36.8767 14.3395C41.5081 9.70398 45.9563 7.81259 52.2277 7.81259H52.8865L62.3449 16.8599V19.6405C62.3449 23.5137 60.7677 27.1545 57.9046 29.8943L51.569 35.9545C51.3307 36.1825 51.0148 36.3072 50.6776 36.3072C49.9829 36.3072 49.4174 35.7663 49.4174 35.1018C49.4174 34.7793 49.549 34.4771 49.7861 34.2491L55.1347 29.133C55.7968 28.4997 56.1622 27.6567 56.1622 26.7599C56.1622 24.9094 54.5884 23.404 52.6538 23.404C51.7163 23.404 50.835 23.7534 50.1728 24.3868L38.6416 35.4169C38.4033 35.6448 38.0874 35.7696 37.7502 35.7696C37.0555 35.7696 36.49 35.2287 36.49 34.5642C36.49 34.2416 36.6215 33.9395 36.8587 33.7115L47.4019 23.6266L45.8124 22.1061L39.397 28.2427H38.8743C38.1796 28.2427 37.6141 27.7018 37.6141 27.0373C37.6141 26.7147 37.7457 26.4126 37.9829 26.1846L45.1536 19.3255L43.5641 17.8051L38.2729 22.8663H37.7502C37.0555 22.8663 36.49 22.3255 36.49 21.661C36.49 21.3384 36.6215 21.0362 36.8587 20.8083L42.9054 15.0244L41.3159 13.504L38.2729 16.4147H37.7502ZM67.9655 62.6513C67.9655 63.8373 66.9571 64.8018 65.7172 64.8018H5.01456C3.77465 64.8018 2.76631 63.8373 2.76631 62.6513V23.9416C2.76631 22.7556 3.77465 21.7911 5.01456 21.7911H34.2553C34.3092 23.104 35.1456 24.2244 36.3383 24.7276C35.7144 25.3545 35.3659 26.1685 35.3659 27.0373C35.3659 28.404 36.227 29.5771 37.4545 30.1008L35.2692 32.1911C34.6071 32.8244 34.2418 33.6674 34.2418 34.5642C34.2418 35.2416 34.4565 35.8706 34.8184 36.3986L25.2488 31.3137L14.0075 37.2868V42.2212H16.2558V49.7481H14.0075V51.8986H36.49V49.7481H34.2418V42.2212H36.49V37.6868C36.8823 37.8319 37.305 37.9201 37.7502 37.9201C38.6877 37.9201 39.569 37.5717 40.2311 36.9373L51.7624 25.9072C52.0007 25.6803 52.3166 25.5545 52.6538 25.5545C53.3485 25.5545 53.9139 26.0954 53.9139 26.7599C53.9139 27.0825 53.7824 27.3846 53.5452 27.6126L48.1966 32.7287C47.5345 33.362 47.1692 34.2051 47.1692 35.1018C47.1692 36.9524 48.743 38.4577 50.6776 38.4577C51.6151 38.4577 52.4964 38.1094 53.1585 37.4749L59.4941 31.4147C62.2448 28.7836 63.9445 25.4223 64.4324 21.7911H65.7172C66.9571 21.7911 67.9655 22.7556 67.9655 23.9416V62.6513ZM29.7453 49.7481V42.2212H31.9935V49.7481H29.7453ZM20.7523 42.2212V49.7481H18.504V42.2212H20.7523ZM23.0005 42.2212H27.497V49.7481H23.0005V42.2212ZM16.2558 40.0706V38.5534L25.2488 33.7739L34.2418 38.5534V40.0706H16.2558Z" fill="black"/>
<path d="M5.01514 42.2208H7.26338V44.3713H5.01514V42.2208Z" fill="black"/>
<path d="M63.4668 35.7693H65.715V50.8231H63.4668V35.7693Z" fill="black"/>
<path d="M14.0117 54.0486H36.4942V56.1992H14.0117V54.0486Z" fill="black"/>
<path d="M40.9844 54.0486H56.7221V56.1992H40.9844V54.0486Z" fill="black"/>
<path d="M40.9844 49.7471H56.7221V51.8977H40.9844V49.7471Z" fill="black"/>
<path d="M40.9844 45.4473H47.7291V47.5979H40.9844V45.4473Z" fill="black"/>
<path d="M49.9814 45.4473H56.7262V47.5979H49.9814V45.4473Z" fill="black"/>
</svg>

<svg width="71" height="67" fill="none" xmlns="http://www.w3.org/2000/svg"><path d="M65.717 19.64h-1.124v-2.15h1.316c2.375 0 4.305-1.846 4.305-4.117a4 4 0 00-1.261-2.911l-9.38-8.97a4.374 4.374 0 00-3.04-1.207c-2.374 0-4.304 1.846-4.304 4.117v1.26c-6.863-.001-11.94 2.15-16.959 7.173a3.263 3.263 0 00-1.027 2.373c0 1.367.86 2.54 2.088 3.064l-1.06 1.015c-.115.11-.208.232-.304.352H5.015c-2.48 0-4.497 1.93-4.497 4.302v38.71c0 2.371 2.017 4.3 4.497 4.3h60.702c2.48 0 4.497-1.929 4.497-4.3v-38.71c0-2.372-2.017-4.302-4.497-4.302zM56.532 2.436a2.09 2.09 0 011.454.577l9.378 8.97c.388.371.602.865.602 1.39 0 1.085-.922 1.966-2.056 1.966h-1.976l-9.458-9.047v-1.89c0-1.084.922-1.966 2.056-1.966zM37.75 16.415c-.694 0-1.26-.541-1.26-1.206 0-.322.131-.624.387-.87 4.631-4.635 9.08-6.526 15.35-6.526h.66l9.458 9.047v2.78c0 3.874-1.577 7.514-4.44 10.254l-6.336 6.06a1.28 1.28 0 01-.891.353c-.695 0-1.26-.54-1.26-1.205 0-.323.131-.625.368-.853l5.349-5.116a3.263 3.263 0 001.027-2.373c0-1.85-1.574-3.356-3.508-3.356-.938 0-1.819.35-2.481.983l-11.531 11.03a1.28 1.28 0 01-.892.353c-.694 0-1.26-.541-1.26-1.206 0-.322.131-.624.369-.852l10.543-10.085-1.59-1.52-6.415 6.136h-.523c-.694 0-1.26-.541-1.26-1.206 0-.322.132-.624.369-.852l7.17-6.86-1.589-1.52-5.291 5.061h-.523c-.694 0-1.26-.54-1.26-1.205 0-.323.131-.625.369-.853l6.046-5.784-1.59-1.52-3.042 2.91h-.523zM67.966 62.65c0 1.186-1.009 2.15-2.249 2.15H5.015c-1.24 0-2.249-.964-2.249-2.15V23.94c0-1.185 1.009-2.15 2.249-2.15h29.24c.054 1.313.89 2.433 2.083 2.937a3.255 3.255 0 00-.972 2.31c0 1.366.861 2.54 2.089 3.063l-2.186 2.09a3.263 3.263 0 00-1.027 2.373c0 .678.215 1.307.576 1.835l-9.57-5.085-11.24 5.973v4.934h2.248v7.527h-2.248v2.15H36.49v-2.15h-2.248V42.22h2.248v-4.534c.392.145.815.233 1.26.233a3.56 3.56 0 002.481-.983l11.531-11.03c.239-.227.555-.352.892-.352.694 0 1.26.54 1.26 1.205 0 .322-.132.625-.369.853l-5.348 5.116a3.263 3.263 0 00-1.028 2.373c0 1.85 1.574 3.356 3.509 3.356.937 0 1.818-.349 2.48-.983l6.336-6.06c2.75-2.631 4.45-5.993 4.938-9.624h1.285c1.24 0 2.249.965 2.249 2.15v38.71zm-38.22-12.903V42.22h2.248v7.527h-2.249zm-8.994-7.527v7.527h-2.248V42.22h2.248zm2.248 0h4.497v7.527H23V42.22zm-6.744-2.15v-1.518l8.993-4.78 8.993 4.78v1.518H16.256z" fill="#000"/><path d="M5.015 42.22h2.248v2.151H5.015v-2.15zm58.452-6.45h2.248v15.053h-2.248V35.77zM14.012 54.049h22.482v2.15H14.012v-2.15zm26.972 0h15.738v2.15H40.984v-2.15zm0-4.302h15.738v2.15H40.984v-2.15zm0-4.3h6.745v2.15h-6.745v-2.15zm8.997 0h6.745v2.15h-6.745v-2.15z" fill="#000"/></svg>
